P3
16 4
255
128 110 220
128 110 220
63 22 104
63 22 104
38 214 161
38 214 161
0 127 43
0 127 43
255 149 106
255 149 106
217 61 0
217 61 0
192 254 47
192 254 47
128 166 0
128 166 0
128 110 220
128 110 220
63 22 104
63 22 104
38 214 161
38 214 161
0 127 43
0 127 43
255 149 106
255 149 106
217 61 0
217 61 0
192 254 47
192 254 47
128 166 0
128 166 0
128 110 220
128 110 220
63 22 104
63 22 104
38 214 161
38 214 161
0 127 43
0 127 43
255 149 106
255 149 106
217 61 0
217 61 0
192 254 47
192 254 47
128 166 0
128 166 0
128 110 220
128 110 220
63 22 104
63 22 104
38 214 161
38 214 161
0 127 43
0 127 43
255 149 106
255 149 106
217 61 0
217 61 0
192 254 47
192 254 47
128 166 0
128 166 0
