P3
16 4
255
0 118 0
0 123 0
0 123 0
252 142 180
209 166 13
135 119 180
89 142 12
22 96 183
0 119 15
0 72 183
0 95 16
252 142 180
209 132 186
135 157 0
89 147 0
22 91 208
0 81 213
0 106 10
0 95 16
252 142 180
209 166 13
135 119 180
89 142 12
22 96 183
0 119 15
0 72 183
0 95 16
252 142 180
209 132 186
135 157 0
89 147 0
22 91 208
0 81 213
0 106 10
0 95 16
47 19 0
0 118 0
47 18 0
0 55 0
252 142 180
209 166 13
135 119 180
89 142 12
22 96 183
0 119 15
0 72 183
0 95 16
252 142 180
209 132 186
135 157 0
89 147 0
22 91 208
0 81 213
0 106 10
0 95 16
252 142 180
209 166 13
135 119 180
89 142 12
22 96 183
0 119 15
0 72 183
0 95 16
252 142 180
