P3
16 4
255
0 150 0
0 138 0
0 137 0
0 141 0
175 85 220
91 1 136
91 8 104
91 8 104
91 8 104
91 8 104
91 8 104
91 8 104
91 8 104
91 8 104
91 8 104
91 8 104
91 8 104
91 8 104
133 166 161
49 82 77
95 244 106
11 160 22
54 255 47
0 239 0
175 85 220
189 99 234
189 106 202
189 106 202
189 106 202
189 106 202
189 106 202
189 106 202
189 106 202
189 106 202
189 106 202
189 106 202
189 106 202
189 106 202
189 106 202
189 106 202
189 106 202
189 106 202
189 106 202
189 106 202
189 106 202
189 106 202
146 128 202
48 30 104
0 94 29
136 234 169
81 255 100
0 202 2
0 246 0
0 246 0
175 85 220
91 1 136
91 8 104
91 8 104
91 8 104
91 8 104
91 8 104
91 8 104
91 8 104
91 8 104
